Hatter-kde-dark/actions/24/snap-nodes-rotation-center.svg

<svg xmlns="http://www.w3.org/2000/svg" viewBox="0 0 24 24">
  <defs id="defs3051">
    <style type="text/css" id="current-color-scheme">
      .ColorScheme-Text {
        color:#dedede;
      }
      .ColorScheme-Highlight {
        color:#3daee9;
      }
      </style>
  </defs>
 <path 
     style="fill:currentColor;fill-opacity:1;stroke:none" 
     d="M 10.599609 4.0507812 L 9.8925781 4.7578125 L 12.185547 7.0507812 L 9.9003906 7.0507812 L 9 7.0507812 L 9 8.0507812 L 9.9003906 8.0507812 L 12.185547 8.0507812 L 9.8925781 10.34375 L 10.599609 11.050781 L 13.892578 7.7578125 L 14.099609 7.5507812 L 13.892578 7.34375 L 10.599609 4.0507812 z M 7.5 7.0507812 C 7.223 7.0507812 7 7.2737812 7 7.5507812 C 7 7.8277814 7.223 8.0507814 7.5 8.0507812 C 7.777 8.0507812 8 7.8277813 8 7.5507812 C 8 7.2737812 7.777 7.0507814 7.5 7.0507812 z M 4.5 9.0507812 C 4.223 9.0507812 4 9.2737814 4 9.5507812 C 4 9.8277814 4.223 10.050781 4.5 10.050781 C 4.777 10.050781 5 9.8277813 5 9.5507812 C 5 9.2737814 4.777 9.0507812 4.5 9.0507812 z M 3.5 12.050781 C 3.223 12.050781 3 12.273781 3 12.550781 C 3 12.827781 3.223 13.050781 3.5 13.050781 C 3.777 13.050781 4 12.827781 4 12.550781 C 4 12.273781 3.777 12.050781 3.5 12.050781 z M 4.5 15.050781 C 4.223 15.050781 4 15.273781 4 15.550781 C 4 15.827781 4.223 16.050781 4.5 16.050781 C 4.777 16.050781 5 15.827781 5 15.550781 C 5 15.273781 4.777 15.050781 4.5 15.050781 z M 7.5 17.050781 C 7.223 17.050781 7 17.273781 7 17.550781 C 7 17.827781 7.223 18.050781 7.5 18.050781 C 7.777 18.050781 8 17.827781 8 17.550781 C 8 17.273781 7.777 17.050781 7.5 17.050781 z "
     class="ColorScheme-Text"
     />
 <path 
     style="fill:currentColor;fill-opacity:1;stroke:none" 
     d="M 15 11 A 4 4 0 0 0 11 15 A 4 4 0 0 0 15 19 A 4 4 0 0 0 19 15 A 4 4 0 0 0 15 11 z M 15 12 A 3 3 0 0 1 18 15 A 3 3 0 0 1 15 18 A 3 3 0 0 1 12 15 A 3 3 0 0 1 15 12 z "
     class="ColorScheme-Highlight"
     />
</svg>

<?xml version="1.0" encoding="UTF-8"?>
<svg viewBox="0 0 24 24" xmlns="http://www.w3.org/2000/svg">
 <defs id="defs3051">
  <style id="current-color-scheme" type="text/css">.ColorScheme-Text {
        color:#dedede;
      }
      .ColorScheme-Highlight {
        color:#3daee9;
      }</style>
 </defs>
 <path class="ColorScheme-Text" d="m10.6 4.0508-0.70703 0.70703 2.293 2.293h-2.2852-0.90039v1h0.90039 2.2852l-2.293 2.293 0.70703 0.70703 3.5-3.5-3.5-3.5zm-3.0996 3c-0.277 0-0.5 0.223-0.5 0.5 0 0.277 0.223 0.5 0.5 0.5 0.277 0 0.5-0.223 0.5-0.5 0-0.277-0.223-0.5-0.5-0.5zm-3 2c-0.277 0-0.5 0.223-0.5 0.5 0 0.277 0.223 0.5 0.5 0.5s0.5-0.223 0.5-0.5c0-0.277-0.223-0.5-0.5-0.5zm-1 3c-0.277 0-0.5 0.223-0.5 0.5s0.223 0.5 0.5 0.5 0.5-0.223 0.5-0.5-0.223-0.5-0.5-0.5zm1 3c-0.277 0-0.5 0.223-0.5 0.5s0.223 0.5 0.5 0.5 0.5-0.223 0.5-0.5-0.223-0.5-0.5-0.5zm3 2c-0.277 0-0.5 0.223-0.5 0.5s0.223 0.5 0.5 0.5 0.5-0.223 0.5-0.5-0.223-0.5-0.5-0.5z" fill="currentColor"/>
 <path class="ColorScheme-Highlight" d="m15 11a4 4 0 0 0-4 4 4 4 0 0 0 4 4 4 4 0 0 0 4-4 4 4 0 0 0-4-4zm0 1a3 3 0 0 1 3 3 3 3 0 0 1-3 3 3 3 0 0 1-3-3 3 3 0 0 1 3-3z" fill="currentColor"/>
</svg>
